icons/svg/rocket.svg

﻿<?xml version="1.0" encoding="utf-8"?>
<!DOCTYPE svg PUBLIC "-//W3C//DTD SVG 1.1//EN" "http://www.w3.org/Graphics/SVG/1.1/DTD/svg11.dtd">
<svg xmlns="http://www.w3.org/2000/svg" xmlns:xlink="http://www.w3.org/1999/xlink" version="1.1" baseProfile="full" width="24" height="24" viewBox="0 0 24.00 24.00" enable-background="new 0 0 24.00 24.00" xml:space="preserve">
	<path fill="#000000" fill-opacity="1" stroke-linejoin="round" d="M 2.80761,14.1213L 5.63604,11.2929L 8.17304,10.7855C 11.39,6.40972 17.5532,4.22183 19.7782,4.22183C 19.7782,6.44683 17.5903,12.61 13.2145,15.827L 12.7071,18.364L 9.87868,21.1924L 9.17157,17.6569C 7.75736,17.6569 7.75736,17.6569 7.05025,16.9497C 6.34315,16.2426 6.34315,16.2426 6.34315,14.8284L 2.80761,14.1213 Z M 5.63604,16.9497L 7.05025,18.364L 4.38603,21.0282L 2.97181,21.0282L 2.97181,19.614L 5.63604,16.9497 Z M 4.22182,15.5355L 5.45926,15.7123L 3.01472,18.1569L 3.01472,16.7426L 4.22182,15.5355 Z M 8.28769,18.5407L 8.46447,19.7782L 7.25735,20.9853L 5.84314,20.9853L 8.28769,18.5407 Z M 13,9.5C 12.1716,9.5 11.5,10.1716 11.5,11C 11.5,11.8284 12.1716,12.5 13,12.5C 13.8284,12.5 14.5,11.8284 14.5,11C 14.5,10.1716 13.8284,9.5 13,9.5 Z "/>
</svg>

<svg xmlns="http://www.w3.org/2000/svg" version="1.1" baseProfile="full" width="24" height="24" viewBox="0 0 24.00 24.00" xml:space="preserve"><path fill="#000" fill-opacity="1" stroke-linejoin="round" d="M2.808 14.12l2.828-2.827 2.537-.507c3.217-4.376 9.38-6.564 11.605-6.564 0 2.225-2.188 8.388-6.563 11.605l-.508 2.537-2.828 2.828-.708-3.535c-1.415 0-1.415 0-2.122-.707-.707-.707-.707-.707-.707-2.122l-3.535-.707zm2.828 2.83l1.414 1.414-2.664 2.664H2.972v-1.414l2.664-2.664zm-1.414-1.414l1.237.176-2.445 2.445v-1.414l1.207-1.207zm4.066 3.005l.176 1.238-1.207 1.207H5.843l2.445-2.444zM13 9.5c-.828 0-1.5.672-1.5 1.5s.672 1.5 1.5 1.5 1.5-.672 1.5-1.5-.672-1.5-1.5-1.5z"/></svg>
